X:78
T: Maedchen und Hasel
N: Q0138A
O: Mitteleuropa, Deutschland (DDR) , Brandenburg, Uckermark, Gramzow
R: Ballade, verlorene Unschuld, Moral
M: 3/4
L: 1/16
K: G
D2 | D2D2G4G2G2 | D2FGA6
BA | G2G2G6AB | c2B2A4z2
B2 | G2G2c6B2 | A2G2A6
B2 | G2G2B2A2G2G2 | G2F2G4z2

@@@ Tune index: 1576
